client/assets/images/customer-home/illustration--import-complete.svg

<svg width="202" height="152" viewBox="0 0 202 152" fill="none" xmlns="http://www.w3.org/2000/svg">
<path d="M100.561 31.7766C52.2672 31.7766 13.1176 70.9262 13.1176 119.22C13.1176 130.544 15.2701 141.365 19.1884 151.297L181.852 151.501C185.822 141.514 188.004 130.622 188.004 119.22C188.004 70.9262 148.854 31.7766 100.561 31.7766Z" fill="#E6F2E8"/>
<rect x="28.7042" y="34.7581" width="121.581" height="116.204" rx="1.5" fill="white" stroke="#C3C4C7"/>
<line x1="41.0322" y1="113.903" x2="103.548" y2="113.903" stroke="#C3C4C7" stroke-width="2" stroke-linecap="round"/>
<path d="M41.1074 124.581H75.516" stroke="#C3C4C7" stroke-width="2" stroke-linecap="round"/>
<path d="M41.1074 134.258H75.516" stroke="#C3C4C7" stroke-width="2" stroke-linecap="round"/>
<rect x="29.2795" y="51.4624" width="122.581" height="50.5376" fill="#F6F7F7"/>
<circle cx="44.3333" cy="66.5162" r="4.80108" fill="#DCDCDE" stroke="#A7AAAD"/>
<rect x="32.5052" y="38.5591" width="8.60215" height="8.60215" fill="#DCDCDE"/>
<line x1="28.7042" y1="50.9624" x2="150.285" y2="50.9624" stroke="#C3C4C7" stroke-linecap="round"/>
<line x1="28.7042" y1="102.575" x2="150.285" y2="102.575" stroke="#C3C4C7" stroke-linecap="round"/>
<rect x="49.2096" y="24.0806" width="123.581" height="126.806" rx="2.5" fill="white" stroke="#01263A"/>
<rect x="54.0106" y="28.8818" width="8.60215" height="8.60215" fill="#2271B1"/>
<line x1="63.6128" y1="105.301" x2="126.129" y2="105.301" stroke="#043959" stroke-width="2" stroke-linecap="round"/>
<line x1="136.731" y1="105.301" x2="147.634" y2="105.301" stroke="#043959" stroke-width="2" stroke-linecap="round"/>
<path d="M63.6881 115.979H98.0967" stroke="#043959" stroke-width="2" stroke-linecap="round"/>
<path d="M108.849 115.979H156.161" stroke="#043959" stroke-width="2" stroke-linecap="round"/>
<path d="M70.4905 13.1003C70.2566 12.9865 69.9058 12.9865 69.7889 13.1003L68.2689 13.7833C68.035 13.8971 67.9181 13.7833 68.035 13.5556L68.7366 12.0758C68.8535 11.8481 68.8535 11.5066 68.7366 11.3928L68.035 9.79917C67.9181 9.57151 68.035 9.45768 68.2689 9.57151L69.7889 10.2545C70.0227 10.3683 70.3735 10.3683 70.4905 10.2545L72.0105 9.57151C72.2443 9.45768 72.3613 9.57151 72.2443 9.79917L71.5428 11.279C71.3089 11.5066 71.3089 11.8481 71.4259 12.0758L72.1274 13.5556C72.2443 13.7833 72.1274 13.8971 71.8936 13.7833L70.4905 13.1003Z" fill="#D48FC8"/>
<path d="M183.521 3.60245C183.421 3.4024 183.221 3.20235 183.021 3.10232L182.021 2.70222C181.821 2.6022 181.821 2.50217 182.021 2.50217L183.021 2.10207C183.221 2.00205 183.421 1.802 183.521 1.60195L183.921 0.601698C184.021 0.401648 184.121 0.401648 184.121 0.601698L184.522 1.60195C184.622 1.802 184.822 2.00205 185.022 2.10207L186.022 2.50217C186.222 2.6022 186.222 2.70222 186.022 2.70222L185.022 3.10232C184.822 3.20235 184.622 3.4024 184.522 3.60245L184.121 4.6027C184.021 4.80275 183.921 4.80275 183.921 4.6027L183.521 3.60245Z" fill="#5198D9"/>
<path d="M99.2482 8.21889C98.839 8.01427 98.2251 8.01427 98.0205 8.21889L95.3604 9.44661C94.9512 9.65123 94.7466 9.44661 94.9512 9.03737L96.1789 6.3773C96.3835 5.96806 96.3835 5.3542 96.1789 5.14958L94.9512 2.48951C94.7466 2.08027 94.9512 1.87565 95.3604 2.08027L98.0205 3.308C98.4297 3.51262 99.0436 3.51262 99.2482 3.308L101.908 2.08027C102.318 1.87565 102.522 2.08027 102.318 2.48951L101.09 5.14958C100.885 5.55882 100.885 6.17268 101.09 6.3773L102.318 9.03737C102.522 9.44661 102.318 9.65123 101.908 9.44661L99.2482 8.21889Z" fill="#043959"/>
<path d="M63.6881 126.731H111" stroke="#043959" stroke-width="2" stroke-linecap="round"/>
<rect x="49.7096" y="41.7849" width="122.581" height="50.5376" fill="#E9EFF5"/>
<rect x="62.6128" y="139.635" width="96.7742" height="10.7527" fill="#E9EFF5"/>
<path d="M119.064 67.5915L88.4192 92.3227H172.29V85.8711L146.484 57.3765L127.129 75.1184L119.064 67.5915Z" fill="#DCDCDE"/>
<path d="M89.4945 91.7849L119.064 67.5913L134.118 81.5698" stroke="#101517" stroke-linecap="round" stroke-linejoin="round"/>
<path d="M114.226 75.6558L111 74.0429L119.064 67.5913L125.516 73.5053L124.441 74.5806L120.677 74.0429L114.226 75.6558Z" fill="white" stroke="#101517" stroke-linecap="round" stroke-linejoin="round"/>
<path d="M127.129 75.1184L146.484 57.3765L171.753 85.3335" stroke="#101517" stroke-linecap="round" stroke-linejoin="round"/>
<path d="M142.72 65.441L139.495 63.8281L146.484 57.3765L152.398 63.8281L149.172 65.441L145.946 64.3657L142.72 65.441Z" fill="white" stroke="#101517" stroke-linecap="round" stroke-linejoin="round"/>
<circle cx="64.7634" cy="56.8387" r="4.80108" fill="#F5E6B3" stroke="#F0C930"/>
<line x1="97.5214" y1="32.6829" x2="115.876" y2="32.6829" stroke="#A7AAAD" stroke-linecap="round"/>
<line x1="121.177" y1="32.6829" x2="135.231" y2="32.6829" stroke="#A7AAAD" stroke-linecap="round"/>
<line x1="140.532" y1="32.6829" x2="163.188" y2="32.6829" stroke="#A7AAAD" stroke-linecap="round"/>
<line x1="50.2096" y1="41.2849" x2="171.79" y2="41.2849" stroke="#A7AAAD" stroke-linecap="round"/>
<line x1="50.2096" y1="92.8979" x2="171.79" y2="92.8979" stroke="#A7AAAD" stroke-linecap="round"/>
<path d="M167.699 27.3106C167.473 26.3686 166.566 25.4267 165.659 25.1912L158.18 22.3652C157.273 22.1297 157.273 21.6587 158.18 21.1877L165.659 18.3618C166.566 18.3618 167.473 17.4198 167.699 16.4778L170.419 8.70649C170.646 7.7645 171.099 7.7645 171.552 8.70649L174.272 16.4778C174.499 17.4198 175.405 18.3618 176.312 18.5973L183.791 21.4232C184.698 21.6587 184.698 22.1297 183.791 22.6007L176.085 25.1912C175.179 25.4267 174.272 26.3686 174.045 27.3106L171.326 35.082C171.099 36.024 170.646 36.024 170.192 35.082L167.699 27.3106Z" fill="#F0C930"/>
<path d="M1 151.462H9.60215M201 151.462H196.699M192.398 151.462H13.9032" stroke="#01263A" stroke-linecap="round" stroke-linejoin="round"/>
</svg>

<svg width="202" height="152" fill="none" xmlns="http://www.w3.org/2000/svg"><path d="M100.561 31.777c-48.294 0-87.443 39.15-87.443 87.443 0 11.324 2.152 22.145 6.07 32.077l162.664.204c3.97-9.987 6.152-20.879 6.152-32.281 0-48.294-39.15-87.443-87.443-87.443z" fill="#E6F2E8"/><rect x="28.704" y="34.758" width="121.581" height="116.204" rx="1.5" fill="#fff" stroke="#C3C4C7"/><path stroke="#C3C4C7" stroke-width="2" stroke-linecap="round" d="M41.032 113.903h62.516m-62.441 10.678h34.409m-34.409 9.677h34.409"/><path fill="#F6F7F7" d="M29.279 51.462H151.86V102H29.279z"/><circle cx="44.333" cy="66.516" r="4.801" fill="#DCDCDE" stroke="#A7AAAD"/><path fill="#DCDCDE" d="M32.505 38.559h8.602v8.602h-8.602z"/><path stroke="#C3C4C7" stroke-linecap="round" d="M28.704 50.962h121.581M28.704 102.575h121.581"/><rect x="49.21" y="24.081" width="123.581" height="126.806" rx="2.5" fill="#fff" stroke="#01283d"/><path fill="#055d9c" d="M54.011 28.882h8.602v8.602h-8.602z"/><path stroke="#02395c" stroke-width="2" stroke-linecap="round" d="M63.613 105.301h62.516m10.602 0h10.903m-83.946 10.678h34.409m10.752 0h47.312"/><path d="M70.49 13.1c-.233-.114-.584-.114-.701 0l-1.52.683c-.234.114-.35 0-.234-.227l.702-1.48c.117-.228.117-.57 0-.683l-.702-1.594c-.117-.227 0-.341.234-.227l1.52.683c.234.113.585.113.701 0l1.52-.683c.234-.114.351 0 .234.227l-.701 1.48c-.234.228-.234.57-.117.797l.701 1.48c.117.227 0 .341-.233.227L70.49 13.1z" fill="#D48FC8"/><path d="M183.521 3.602c-.1-.2-.3-.4-.5-.5l-1-.4c-.2-.1-.2-.2 0-.2l1-.4c.2-.1.4-.3.5-.5l.4-1c.1-.2.2-.2.2 0l.401 1c.1.2.3.4.5.5l1 .4c.2.1.2.2 0 .2l-1 .4c-.2.1-.4.3-.5.5l-.401 1c-.1.2-.2.2-.2 0l-.4-1z" fill="#399ce3"/><path d="M99.248 8.219c-.409-.205-1.023-.205-1.228 0l-2.66 1.228c-.409.204-.613 0-.409-.41l1.228-2.66c.204-.409.204-1.023 0-1.227L94.95 2.49c-.204-.41 0-.614.41-.41l2.66 1.228c.409.205 1.023.205 1.227 0l2.66-1.228c.41-.204.614 0 .41.41l-1.228 2.66c-.205.409-.205 1.023 0 1.227l1.228 2.66c.204.41 0 .614-.41.41l-2.66-1.228z" fill="#02395c"/><path d="M63.688 126.731H111" stroke="#02395c" stroke-width="2" stroke-linecap="round"/><path fill="#e9f0f5" d="M49.71 41.785h122.581v50.538H49.71zm12.903 97.85h96.774v10.753H62.613z"/><path d="M119.064 67.591L88.419 92.323h83.871V85.87l-25.806-28.494-19.355 17.741-8.065-7.526z" fill="#DCDCDE"/><path d="M89.495 91.785l29.569-24.194 15.054 13.979" stroke="#101517" stroke-linecap="round" stroke-linejoin="round"/><path d="M114.226 75.656L111 74.043l8.064-6.452 6.452 5.914-1.075 1.076-3.764-.538-6.451 1.613z" fill="#fff" stroke="#101517" stroke-linecap="round" stroke-linejoin="round"/><path d="M127.129 75.118l19.355-17.741 25.269 27.956" stroke="#101517" stroke-linecap="round" stroke-linejoin="round"/><path d="M142.72 65.441l-3.225-1.613 6.989-6.452 5.914 6.452-3.226 1.613-3.226-1.075-3.226 1.075z" fill="#fff" stroke="#101517" stroke-linecap="round" stroke-linejoin="round"/><circle cx="64.763" cy="56.839" r="4.801" fill="#F5E6B3" stroke="#F0C930"/><path stroke="#A7AAAD" stroke-linecap="round" d="M97.521 32.683h18.355m5.301 0h14.054m5.301 0h22.656M50.21 41.285h121.58M50.21 92.898h121.58"/><path d="M167.699 27.31c-.226-.941-1.133-1.883-2.04-2.119l-7.479-2.826c-.907-.235-.907-.706 0-1.177l7.479-2.826c.907 0 1.814-.942 2.04-1.884l2.72-7.772c.227-.941.68-.941 1.133 0l2.72 7.772c.227.942 1.133 1.884 2.04 2.12l7.479 2.825c.907.236.907.707 0 1.178l-7.706 2.59c-.906.236-1.813 1.178-2.04 2.12l-2.719 7.771c-.227.942-.68.942-1.134 0l-2.493-7.771z" fill="#F0C930"/><path d="M1 151.462h8.602m191.398 0h-4.301m-4.301 0H13.903" stroke="#01283d" stroke-linecap="round" stroke-linejoin="round"/></svg>
